X: 2309
M: 6/8
L: 1/8
K: D
uA |\
|: uA |\
vd2vf ue2ud | Bcd A2F | A2A g2f | f3 eag |\
f2a f2d | Bcd AGF | A2A B2c | d3- d2 :|


